Adwaita++/actions/scalable/media-optical-audio-new.svg

<svg height="64" width="64" xmlns="http://www.w3.org/2000/svg">
  <defs>
    <linearGradient gradientUnits="userSpaceOnUse" x1="48.163178" x2="48.163178" y1="57.0623" y2="34.589616">
      <stop offset="0" stop-color="#e72662"/>
      <stop offset=".48271722" stop-color="#ec3c50"/>
      <stop offset="1" stop-color="#ff7b66"/>
    </linearGradient>
  </defs>
  <path d="m32 5c-15.512 0-28 12.488-28 28s12.488 28 28 28 28-12.488 28-28-12.488-28-28-28zm0 16a12 12 0 0 1 12 12 12 12 0 0 1 -12 12 12 12 0 0 1 -12-12 12 12 0 0 1 12-12z" opacity=".2"/>
  <path d="m32 17a15 15 0 0 0 -15 15 15 15 0 0 0 15 15 15 15 0 0 0 15-15 15 15 0 0 0 -15-15zm0 9c3.3138 0 6 2.6862 6 6s-2.6862 6-6 6-6-2.6862-6-6 2.6862-6 6-6z" fill="#858585"/>
  <path d="m32 4c-15.512 0-28 12.488-28 28s12.488 28 28 28 28-12.488 28-28-12.488-28-28-28zm0 16a12 12 0 0 1 12 12 12 12 0 0 1 -12 12 12 12 0 0 1 -12-12 12 12 0 0 1 12-12z" fill="#e4e4e4"/>
  <path d="m20.025391 32.5a12 12 0 0 0 -.025391.5 12 12 0 0 0 12 12 12 12 0 0 0 12-12 12 12 0 0 0 -.021484-.404297 12 12 0 0 1 -11.978516 11.404297 12 12 0 0 1 -11.974609-11.5zm11.974609-28.5c-15.512 0-28 12.488-28 28 0 .11345.01128.224113.017578.335938.3515433-15.201757 12.69315-27.335938 27.982422-27.335938s27.630879 12.134181 27.982422 27.335938c.006298-.111825.017578-.222488.017578-.335938 0-15.512-12.488-28-28-28z" fill="#fff" opacity=".2"/>
  <circle cx="48" cy="46" fill="#1caff3" r="16"/>
  <path d="m32.025391 46.5a16 16.001894 0 0 0 -.025391.498106 16 16.001894 0 0 0 16 16.001894 16 16.001894 0 0 0 16-16.001894 16 16.001894 0 0 0 -.017578-.492246 16 16.001894 0 0 1 -15.982422 15.494022 16 16.001894 0 0 1 -15.974609-15.499882z" opacity=".2"/>
  <path d="m53.710447 38.000107c-.202965-.0022-.472807.02943-.831837.08335l-5.974163.913502c-1.442389.30714-1.437438.402676-1.442314 1.621261v9.887509c-.06016-.04211-.119494-.08451-.181688-.126188v.00042c-.458257-.307097-.946668-.525646-1.60269-.525646-.821713 0-1.311746.31464-1.608387.729071-.296641.414432-.395028.936806-.395028 1.340605 0 .486933.166254 1.00662.526915 1.402644.360661.39603.915158.673355 1.712419.673366.900291 0 1.533576-.251393 1.891574-.742365.281871-.386564.437739-.902995.493363-1.540018v-.0016c.0078-.07729.01345-.156667.01836-.23845.0076-.125918.0059-.36148.0059-.36148v-7.570637c0-1.081523-.000053-1.146083 1.442737-1.392724l4.248447-.666382c1.445388-.189112 1.445691-.0576 1.445691.754637v6.947801c-.05854-.04104-.116347-.08228-.176834-.122813v.00042c-.458258-.307092-.946455-.525646-1.602478-.525646-.821718 0-1.311956.314645-1.608598.729071-.296641.414425-.395028.9368-.395028 1.340605 0 .486933.166465 1.006618.527125 1.402642.360661.396032.915152.673562 1.712419.673573.900291 0 1.533576-.251603 1.891576-.742576.28187-.386559.437527-.902784.493152-1.539808v-.0021c.0078-.07729.01345-.156456.01836-.238239.0076-.125918.0061-.361685.0061-.361685v-10.532554c0-.948566-.0062-1.26271-.61512-1.26949z" fill="#fff" stroke-width=".755943"/>
</svg>

<?xml version="1.0" encoding="UTF-8" standalone="no"?>
<svg
   xmlns:dc="http://purl.org/dc/elements/1.1/"
   xmlns:cc="http://creativecommons.org/ns#"
   xmlns:rdf="http://www.w3.org/1999/02/22-rdf-syntax-ns#"
   xmlns:svg="http://www.w3.org/2000/svg"
   xmlns="http://www.w3.org/2000/svg"
   xmlns:sodipodi="http://sodipodi.sourceforge.net/DTD/sodipodi-0.dtd"
   xmlns:inkscape="http://www.inkscape.org/namespaces/inkscape"
   width="64"
   height="64"
   version="1.1"
   id="svg16"
   sodipodi:docname="ubiquity.svg"
   inkscape:version="0.92.3 (2405546, 2018-03-11)">
  <metadata
     id="metadata22">
    <rdf:RDF>
      <cc:Work
         rdf:about="">
        <dc:format>image/svg+xml</dc:format>
        <dc:type
           rdf:resource="http://purl.org/dc/dcmitype/StillImage" />
      </cc:Work>
    </rdf:RDF>
  </metadata>
  <defs
     id="defs20">
    <linearGradient
       id="linearGradient934"
       x1="592"
       x2="592"
       y1="204"
       y2="-4"
       gradientTransform="matrix(0.10804175,0,0,0.10804175,-15.797538,35.021783)"
       gradientUnits="userSpaceOnUse">
      <stop
         style="stop-color:#e72662"
         offset="0"
         id="stop35" />
      <stop
         style="stop-color:#ec3c50"
         offset=".48271722"
         id="stop37" />
      <stop
         style="stop-color:#ff7b66"
         offset="1"
         id="stop39" />
    </linearGradient>
  </defs>
  <sodipodi:namedview
     pagecolor="#ffffff"
     bordercolor="#666666"
     borderopacity="1"
     objecttolerance="10"
     gridtolerance="10"
     guidetolerance="10"
     inkscape:pageopacity="0"
     inkscape:pageshadow="2"
     inkscape:window-width="1920"
     inkscape:window-height="1009"
     id="namedview18"
     showgrid="false"
     inkscape:zoom="13.046875"
     inkscape:cx="32"
     inkscape:cy="32"
     inkscape:window-x="0"
     inkscape:window-y="34"
     inkscape:window-maximized="1"
     inkscape:current-layer="svg16" />
  <path
     style="opacity:0.2"
     d="M 32,5 C 16.488,5 4,17.488 4,33 4,48.512 16.488,61 32,61 47.512,61 60,48.512 60,33 60,17.488 47.512,5 32,5 Z m 0,16 A 12,12 0 0 1 44,33 12,12 0 0 1 32,45 12,12 0 0 1 20,33 12,12 0 0 1 32,21 Z"
     id="path2" />
  <path
     style="fill:#858585"
     d="M 32,17 A 15,15 0 0 0 17,32 15,15 0 0 0 32,47 15,15 0 0 0 47,32 15,15 0 0 0 32,17 Z m 0,9 c 3.3138,0 6,2.6862 6,6 0,3.3138 -2.6862,6 -6,6 -3.3138,0 -6,-2.6862 -6,-6 0,-3.3138 2.6862,-6 6,-6 z"
     id="path4" />
  <path
     style="fill:#e4e4e4"
     d="M 32,4 C 16.488,4 4,16.488 4,32 4,47.512 16.488,60 32,60 47.512,60 60,47.512 60,32 60,16.488 47.512,4 32,4 Z m 0,16 A 12,12 0 0 1 44,32 12,12 0 0 1 32,44 12,12 0 0 1 20,32 12,12 0 0 1 32,20 Z"
     id="path6" />
  <path
     style="opacity:0.2;fill:#ffffff"
     d="M 20.025391,32.5 A 12,12 0 0 0 20,33 12,12 0 0 0 32,45 12,12 0 0 0 44,33 12,12 0 0 0 43.978516,32.595703 12,12 0 0 1 32,44 12,12 0 0 1 20.025391,32.5 Z M 32,4 C 16.488,4 4,16.488 4,32 c 0,0.11345 0.01128,0.224113 0.017578,0.335938 C 4.3691213,17.134181 16.710728,5 32,5 47.289272,5 59.630879,17.134181 59.982422,32.335938 59.98872,32.224113 60,32.11345 60,32 60,16.488 47.512,4 32,4 Z"
     id="path8" />
  <circle
     style="fill:#1caff3"
     cx="48"
     cy="46"
     r="16"
     id="circle10" />
  <path
     style="opacity:0.2"
     d="M 32.025391,46.5 A 16,16.001894 0 0 0 32,46.998106 16,16.001894 0 0 0 48,63 16,16.001894 0 0 0 64,46.998106 16,16.001894 0 0 0 63.982422,46.50586 16,16.001894 0 0 1 48,61.999882 16,16.001894 0 0 1 32.025391,46.5 Z"
     id="path14" />
  <path
     inkscape:connector-curvature="0"
     d="m 53.710447,38.000107 c -0.202965,-0.0022 -0.472807,0.02943 -0.831837,0.08335 l -5.974163,0.913502 c -1.442389,0.30714 -1.437438,0.402676 -1.442314,1.621261 v 9.887509 c -0.06016,-0.04211 -0.119494,-0.08451 -0.181688,-0.126188 v 4.2e-4 c -0.458257,-0.307097 -0.946668,-0.525646 -1.60269,-0.525646 -0.821713,0 -1.311746,0.31464 -1.608387,0.729071 -0.296641,0.414432 -0.395028,0.936806 -0.395028,1.340605 0,0.486933 0.166254,1.00662 0.526915,1.402644 0.360661,0.39603 0.915158,0.673355 1.712419,0.673366 0.900291,0 1.533576,-0.251393 1.891574,-0.742365 0.281871,-0.386564 0.437739,-0.902995 0.493363,-1.540018 v -0.0016 c 0.0078,-0.07729 0.01345,-0.156667 0.01836,-0.23845 0.0076,-0.125918 0.0059,-0.36148 0.0059,-0.36148 v -7.570637 c 0,-1.081523 -5.3e-5,-1.146083 1.442737,-1.392724 l 4.248447,-0.666382 c 1.445388,-0.189112 1.445691,-0.0576 1.445691,0.754637 v 6.947801 c -0.05854,-0.04104 -0.116347,-0.08228 -0.176834,-0.122813 v 4.2e-4 c -0.458258,-0.307092 -0.946455,-0.525646 -1.602478,-0.525646 -0.821718,0 -1.311956,0.314645 -1.608598,0.729071 -0.296641,0.414425 -0.395028,0.9368 -0.395028,1.340605 0,0.486933 0.166465,1.006618 0.527125,1.402642 0.360661,0.396032 0.915152,0.673562 1.712419,0.673573 0.900291,0 1.533576,-0.251603 1.891576,-0.742576 0.28187,-0.386559 0.437527,-0.902784 0.493152,-1.539808 v -0.0021 c 0.0078,-0.07729 0.01345,-0.156456 0.01836,-0.238239 0.0076,-0.125918 0.0061,-0.361685 0.0061,-0.361685 V 39.269673 c 0,-0.948566 -0.0062,-1.26271 -0.61512,-1.26949 z"
     style="opacity:0.99999999;fill:#ffffff;stroke-width:0.75594258;fill-opacity:1"
     id="path66" />
</svg>
